X:1
T:Pat Malloy
M:4/4
L:1/8
K:C
 G,| G,C C3/2 D/2 EA G3/2 G/2| A/2 G3/2 C3/2 D/2 E3 E| DC A,/2 E3/2 D3/2 C/2 A,D|\
 D3/2 E/2 D3/2 E/2 D3| G,| G,C CD EA G3/2 G/2| AG C3/2 D/2 E3 E| DC A, G, G,3/2 C/2 CC|\
 B,/2- F3/2 E3/2 D/2 C3| E| EA EE E/2 E3/2- EE| E3/2 D/2 CB, A,3 A,|\
 A,B, CD EE E^F| GD D/2 ^F3/2 G3| G| G,/2 A,3/2 B,C DE F3/2 ^F/2| AG C3/2 D/2 E3 E|\
 DC A,3/2 G,/2 G,C A3/2 G/2| GE D3/2 E/2 C3||
